X: 40
T: Miss Mary Garden of Troup's Reel
C: Robert Mackintosh
R: jig
Z: 2012 John Chambers <jc:trillian.mit.edu>
M: 6/8
L: 1/8
K: Em
B |\
"Em"e^de BAB | GFG EFG | "D"FED AGF | dAG FED |\
"Em"e^de BAB | GFG EFG | "D"ABc "B7"B^c^d | "Em"e3 e2 :|
e/f/ |\
"Em"gfe Bbe | gfe Bbe | "D"fed Aaf | dAG FED |\
"Em"gfe Bbe | gfe Bbe | abg "B7"agf | "Em"gee e2 |]
f |\
"Em"gfe Bbe | gfe Bbe | "D"fed Aaf | "A7"ABG "B7"FE^D |\
"Em"EFG "B7"FGA | "Em"GAB "Am"ABc | "Em"Bba "B7"gaf | "Em"gee e2 |]
